resources/svg/uninstall-line.svg

<svg fill="currentColor" viewBox="0 0 24 24" xmlns="http://www.w3.org/2000/svg"><path d="M8 2V4H5L4.999 14H18.999L19 4H16V2H20C20.5523 2 21 2.44772 21 3V21C21 21.5523 20.5523 22 20 22H4C3.44772 22 3 21.5523 3 21V3C3 2.44772 3.44772 2 4 2H8ZM18.999 16H4.999L5 20H19L18.999 16ZM17 17V19H15V17H17ZM12 2L16 6H13V11H11V6H8L12 2Z"/></svg>

<svg xmlns="http://www.w3.org/2000/svg" viewBox="0 0 24 24" fill="currentColor">
    <g>
        <path fill="none" d="M0 0h24v24H0z"/>
        <path fill-rule="nonzero" d="M8 2v2H5l-.001 10h14L19 4h-3V2h4a1 1 0 0 1 1 1v18a1 1 0 0 1-1 1H4a1 1 0 0 1-1-1V3a1 1 0 0 1 1-1h4zm10.999 14h-14L5 20h14l-.001-4zM17 17v2h-2v-2h2zM12 2l4 4h-3v5h-2V6H8l4-4z"/>
    </g>
</svg>
